X: 27022
T: Miss Gordon Of Glastinum's
R: reel
M: 4/4
K: Gminor
BGBG A2AB|AFcA AFcA|BGBG A2AB|1 A^FABG2 GA:|2 A^FABG4||
Bdga bagf|Acfg agf=e|1 Bdga bagf|a^fabg4:|
[2 Bdga bagf|Acfg bagf|d2fg fdcB|A^FABG4||

